!!!COM: Arnold (Franz Walter) Schoenberg [Schönberg]
!!!OTL: [T219_Sch-33/232/606-615]
**kern	**dynam	**kern	**kern	**dynam	**kern	**dynam	**kern	**dynam	**kern	**dynam	**kern	**dynam	**kern	**dynam
*grp:A	*grp:A	*grp:B	*grp:B	*grp:B	*grp:A	*grp:A	*grp:B	*grp:B	*grp:B	*grp:B	*grp:B	*grp:B	*grp:A	*grp:A
*part7	*part7	*part6	*part6	*part6	*part5	*part5	*part4	*part4	*part3	*part3	*part2	*part2	*part1	*part1
*staff8	*	*staff7	*staff6	*	*staff5	*	*staff4	*	*staff3	*	*staff2	*	*staff1	*
*I"1. Violoncello	*	*I"Piano	*	*	*I"1. Horn in F	*	*I"Contrabassoon	*	*I"1. 2. Bassoon	*	*I"Bass Clarinet in Bb	*	*I"English Horn	*
*I'1. Vc.	*	*I'Pno.	*	*	*I'1. Hn.	*	*I'Cbsn.	*	*I'1. 2. Bsn.	*	*I'B. Cl.	*	*I'Eng. Hn.	*
!!pagebreak:original
*clefC4	*	*clefF4	*clefG2	*	*clefG2	*	*clefF4	*	*clefF4	*	*clefF4	*	*clefG2	*
*	*	*	*	*	*	*	*ITrd0c0	*	*	*	*	*	*	*
*k[]	*	*k[]	*k[]	*	*k[]	*	*k[]	*	*k[]	*	*k[]	*	*k[]	*
*C:	*	*C:	*C:	*	*C:	*	*C:	*	*C:	*	*C:	*	*C:	*
*M3/4	*	*M3/4	*M3/4	*	*M3/4	*	*M3/4	*	*M3/4	*	*M3/4	*	*M3/4	*
=1	=1	=1	=1	=1	=1	=1	=1	=1	=1	=1	=1	=1	=1	=1
!LO:TX:t=[quarter]=108	!	!	!	!	!	!	!	!	!	!	!	!	!LO:TX:t=[quarter]=108	!
!	!	!	!	!	!	!LO:DY:ed=brack	!	!	!LO:TX:a:t=a2	!	!	!	!	!LO:DY:ed=brack
!	!LO:DY:t=%s dolce	!	!	!LO:DY:t=molto %s	!	!LO:DY:t=%s dolce	!	!LO:DY:t=molto %s	!	!LO:DY:t=molto %s	!	!LO:DY:t=molto %s	!LO:TX:t=P:problem:Hanging slur not implemented yet	!LO:DY:t=%s dolce
(2.g#X)	p	8CC#XL`	4%3r	p	([2.d#X)	p	8CC#XL`	p	8CC#XL`	p	8CC#XL`	p	)[2.A	p
.	.	8DDnJ`	.	.	.	.	8DDnJ`	.	8DDnJ`	.	8DDJ`	.	.	.
.	.	8DD	.	.	.	.	8DD	.	8DD	.	8DD	.	.	.
.	.	[4.CCn	.	.	.	.	[4.CCn	.	[4.CCn	.	[4.CC	.	.	.
=2	=2	=2	=2	=2	=2	=2	=2	=2	=2	=2	=2	=2	=2	=2
(8f#XL	.	4.CC]	4%3r	.	8d#]	.	4.CC]	.	4.CC]	.	4.CC]	.	8A]	.
8en'J)	.	.	.	.	8r	.	.	.	.	.	.	.	8r	.
2fn^	.	.	.	.	2B-	.	.	.	.	.	.	.	2G^	.
.	.	4.BBBn	.	.	.	.	4.BBBn	< [ > ]	4.BBBn	< [ > ]	8r	.	.	.
.	.	.	.	.	.	.	.	.	.	.	4r	.	.	.
=3	=3	=3	=3	=3	=3	=3	=3	=3	=3	=3	=3	=3	=3	=3
4.cn	.	4r	4%3r	.	8g#X'L	.	4r	.	4r	.	4r	.	4.A	.
.	.	.	.	.	[8g#^J	.	.	.	.	.	.	.	.	.
.	.	8DDnL`	.	.	2g#_	.	8DDnL`	.	8DDnL`	.	8DDL`	.	.	.
[4.c	.	8EE-X`	.	.	.	.	8EE-X`	.	8EE-X`	.	8EE-`	.	[4.A	.
.	.	8EE-`	.	.	.	.	8EE-`	.	8EE-`	.	8EE-`	.	.	.
.	.	[8DD-XJ	.	.	.	.	[8DD-XJ	.	[8DD-XJ	.	[8DD-XJ	.	.	.
=4	=4	=4	=4	=4	=4	=4	=4	=4	=4	=4	=4	=4	=4	=4
!	!	!	!	!	!	!	!	!	!LO:TX:a:t=a2	!	!	!	!	!
4.c]	.	2.DD-_	4%3r	.	8g#]	.	2.DD-_	.	2.DD-_	.	2.DD-_	.	4.A]	.
.	.	.	.	.	4.g	.	.	.	.	.	.	.	.	.
[4.cn^	<	.	.	.	.	.	.	.	.	.	.	.	[4.A^	<
.	.	.	.	.	[4f	<	.	.	.	.	.	.	.	.
=5	=5	=5	=5	=5	=5	=5	=5	=5	=5	=5	=5	=5	=5	=5
8cL]	[	8DD-]	4%3r	.	8fL]	.	8DD-]	.	8DD-]	.	8DD-]	.	8AL]	.
[8en^J	>	8r	.	.	[8f#X^J	[ >	8r	.	8r	.	8r	.	[8B-J^	[ >
2e]	.	8r	.	.	2f#]	.	8r	.	8r	.	8r	.	2B-]	.
.	]	4.CC-X	.	.	.	]	4.CC-XN	.	4.CC-XN	.	4.r	.	.	]
!!pagebreak:original
=6	=6	=6	=6	=6	=6	=6	=6	=6	=6	=6	=6	=6	=6	=6
8r	.	8r	4%3r	.	8r	.	8r	.	8r	.	8r	.	4.bX	.
4.B-X^	.	(8FFnL	.	.	4.g^	.	(8FFnL	.	(8FFnL	.	(8FFL	.	.	.
.	.	8EEn')	.	.	.	.	8EEn')	.	8EEn')	.	8EEX')	.	.	.
.	.	8EE'J	.	.	.	.	8EE'J	.	8EE'J	.	8EE'J	.	4b	.
8B-'	.	([4FF#X	.	.	8g'	.	([4FF#X	.	([4FF#X	.	([4FF#X	.	.	.
8r	.	.	.	.	8r	.	.	.	.	.	.	.	([8ccL	.
=7	=7	=7	=7	=7	=7	=7	=7	=7	=7	=7	=7	=7	=7	=7
8e-X'	.	2FF#]	4%3r	.	8a'	.	2FF#]	<	2FF#]	<	2FF#]	<	8cc]	.
8r	.	.	.	.	8r	.	.	.	.	.	.	.	8ddJ)	.
8r	.	.	.	.	8r	.	.	.	.	.	.	.	2cc#X	.
4e-	.	.	.	.	4a	.	.	.	.	.	.	.	.	.
.	.	4GG#X')	.	.	.	.	4GG#X')	[>	4GG#X')	[>	4GG#X')	[>	.	.
8e-'	.	.	.	.	8a'	.	.	]	.	]	.	]	.	.
=8	=8	=8	=8	=8	=8	=8	=8	=8	=8	=8	=8	=8	=8	=8
8e-X'	.	4r	4%3r	.	8a'	.	4r	.	4r	.	4r	.	4r	.
4bn	.	.	.	.	8r	.	.	.	.	.	.	.	.	.
.	.	8FF#X'L	.	.	4.B-	.	(8FF#XL	.	(8FF#XL	.	(8FF#XL	.	4.e	.
8cc#XL	.	8FFn'	.	.	.	.	8FFn')	.	8FFn')	.	8FF')	.	.	.
(8.cc#	.	8FF'	.	.	.	.	8FF'	.	8FF'	.	8FF'	.	.	.
.	.	([8GGnJ	.	.	[8c	.	([8GGnJ	.	([8GGnJ	.	([8GGJ	.	[8a	.
16dd#XJk)	.	.	.	.	.	.	.	.	.	.	.	.	.	.
=9	=9	=9	=9	=9	=9	=9	=9	=9	=9	=9	=9	=9	=9	=9
(4dd#X	.	2GG_	4%3r	.	8c]	.	2GG_	.	2GG_	.	2GG_	.	8a]	.
.	.	.	.	.	4.c	.	.	.	.	.	.	.	4.a	.
[2ddn	.	.	.	.	.	.	.	.	.	.	.	.	.	.
.	.	8GGL]	.	.	[4c	.	8GGL]	.	8GGL]	.	8GGL]	.	[4a	.
.	.	[8GG#XJ	.	.	.	.	[8GG#XJ	.	[8GG#XJ	.	[8GG#XJ	.	.	.
=10	=10	=10	=10	=10	=10	=10	=10	=10	=10	=10	=10	=10	=10	=10
8dd])	.	4.GG#])	4%3r	.	8c]	.	4.GG#])	.	4.GG#])	.	4.GG#])	.	8a]	.
8r	.	.	.	.	8r	.	.	.	.	.	.	.	8r	.
4r	.	.	.	.	4r	.	.	.	.	.	.	.	4r	.
.	.	4GG#X	.	.	.	.	4GG#X	<	4GG#X	<	4GG#X	<	.	.
4r	.	.	.	.	4r	.	.	[>	.	[>	.	[>	4r	.
.	.	[8GG#	.	.	.	.	[8GG#	]	[8GG#	]	[8GG#	]	.	.
=	=	=	=	=	=	=	=	=	=	=	=	=	=	=
*-	*-	*-	*-	*-	*-	*-	*-	*-	*-	*-	*-	*-	*-	*-
!!!system-decoration: [(s1,s2[(s3,s4)])][(s5)][({(s6,s7)})][(s8)]
!!!RDF**kern: N = hairpin accent
